X:200
T:Nail That Catfish to a Tree
C:Steve Rosen
S:Pete Budd, Edinburgh
Z:Nigel Gatherer
M:4/4
L:1/8
K:G
DE|B2 B2 A2 B2|cB A2 B4|ABAG FDAB|A2 F2 E/F/E D2|
B2 B2 A2 B2|cB A2 B4|ABAG FDEF|G6:|]
D2|C4 E4|c6 B2|ABAG FDAB|A2 F2 E/F/E D2|
C4 E4|c6 B2|1ABAG FDEF|G6 :|2 d2 c2 B2 A2| G2 z2 G2|
